X:1
T:Title
%%score { ( 1 3 ) | ( 2 4 ) }
L:1/8
Q:1/4=100
M:4/4
K:D
V:1 treble nm="Grand Piano"
V:3 treble 
V:2 bass 
V:4 bass 
V:1
 [FA]2 [DF]>[EG] [FA]2 [Fd]2 | [A,FA]2 [A,DF]>[A,EG] [DFA]4 | [CGB]2 [A,CE]>[A,DF] [A,EG]2 [CGB]2 | %3
w: W.~J.~Kirkpatrick * * * *|||
 [FB]2 [FA]>[=F^G] [^FA]4 | z4 [Fd]4 | B2 G>B e4 | d2 c>c [GB]2 [Gc]2 | [Fd]6 z2 | d2 B>c d2 B2 | %9
w: ||||||
 [FB]2 [FA]>[=F^G] [^FA]4 | [CEA]2 [A,EG]>[A,^DF] [A,EG]2 [CGB]2 | [GB]2 [FA]>[=F^G] [^FA]4 | %12
w: |||
 [FA]2 [DF]>[FA] [Fd]4 | c2 A>c e4 | c2 c>c d2 [DEB]2 | [CA]4- [C-FA-]2 [CGA]2 | %16
w: ||||
 [DFA]2 [A,DF]>[A,EG] [DFA]2 [Fd]2 | [A,FA]2 [A,DF]>[A,EG] [DFA]4 | %18
w: ||
 [CGB]2 [A,CE]>[A,CF] [A,CG]2 [CGB]2 | [FB]2 [FA]>[=F^G] [^FA]4 | [FA]2 z2 [DFd]2 z2 | %21
w: |||
 [DGB]2 G>B e2 z2 | %22
w: |
 d2 c>c B2 [Gc]2[Q:1/4=98][Q:1/4=97][Q:1/4=95][Q:1/4=94][Q:1/4=92][Q:1/4=91][Q:1/4=89][Q:1/4=88][Q:1/4=86][Q:1/4=84][Q:1/4=83][Q:1/4=81][Q:1/4=80][Q:1/4=78][Q:1/4=77] | %23
w: |
 [Fd]6 z2 |] %24
w: |
V:2
 [D,A,]2 [D,A,]>[D,A,] [D,D]2 [D,A,]2 | D,2 D,>D, D,4 | A,,2 A,,>A,, A,,2 A,,2 | %3
 [D,D]2 [D,D]>[D,D] [D,D]4 | [D,D]2 [D,A,]>[D,A,] A,2 z2 | [G,DG]2 [G,B,D]>[G,B,D] [G,B,G]4 | %6
 [A,F]2[K:bass] [A,E]>[A,E] [A,,A,]2 [A,,A,]2 | [D,A,]6 z2 | %8
 [G,B,G]2 [G,DG]>[G,CG] [G,B,G]2 [G,DG]2 | [D,D]2 [D,D]>[D,D] [D,D]4 | A,,2 A,,>A,, A,,2 A,,2 | %11
 [D,D]2 [D,D]>[D,D] [D,D]4 | [D,D]2 [D,A,]>[D,A,] [D,A,]4 | [A,E]2 [A,CE]>[A,CE] [A,CE]4 | %14
 [A,E]2[K:treble] [A,A]>[A,A] [B,^G]2[K:bass] E,>E, | A,2 G,2 F,2 E,2 | D,2 D,>D, D,2 [D,A,]2 | %17
 D,2 D,>D, D,4 | A,,2 A,,>A,, A,,2 A,,2 | [D,D]2 [D,D]>[D,D] [D,D]4 | %20
 [D,D]2[K:treble] F>A[K:bass] D,2 z2 | G,2 z2[K:treble] [G,B,G]2 z2 | %22
 [A,DF]2 [A,EG]>[A,EG] [A,EG]2[K:bass] [A,,A,]2 | [D,A,]6 z2 |] %24
V:3
 x8 | x8 | x8 | x8 | [FA]2 [DF]>[FA] z2 D2 | x8 | x8 | x8 | x8 | x8 | x8 | x8 | x8 | x8 | x8 | %15
 E4 z4 | x8 | x8 | x8 | x8 | x8 | x8 | x8 | x8 |] %24
V:4
 x8 | x8 | x8 | x8 | z4 D,4 | x8 | x2[K:bass] x6 | x8 | x8 | x8 | x8 | x8 | x8 | x8 | %14
 E,6[K:treble][K:bass] z2 | x8 | x8 | x8 | x8 | x8 | x2[K:treble] x2[K:bass] x4 | x4[K:treble] x4 | %22
 x6[K:bass] x2 | x8 |] %24

